icon-themes/breeze_svg/cmd/32/dbreportedit.svg

<svg viewBox="0 0 32 32" xmlns="http://www.w3.org/2000/svg"><path d="m6 4v24h9v-1h-8v-22h18v15 5h1v-4-17zm3 3v6h6v-6zm7 1v1h7v-1zm0 3v1h7v-1zm-7 4v1h14v-1zm0 4v1h14v-1zm0 4v1h14v-1z" fill="#4d4d4d"/><path d="m17 26a1 1 0 0 0 -1 1 1 1 0 0 0 1 1 1 1 0 0 0 1-1 1 1 0 0 0 -1-1zm4 0a1 .9999913 0 0 0 -1 1 1 .9999913 0 0 0 1 1 1 .9999913 0 0 0 1-1 1 .9999913 0 0 0 -1-1zm4 0a1 .9999913 0 0 0 -1 1 1 .9999913 0 0 0 1 1 1 .9999913 0 0 0 1-1 1 .9999913 0 0 0 -1-1z" fill="#f47750"/></svg>

<svg xmlns="http://www.w3.org/2000/svg" viewBox="0 0 32 32">
 <path 
     style="fill:#4d4d4d" 
     d="M 6 4 L 6 28 L 15 28 L 15 27 L 7 27 L 7 5 L 25 5 L 25 20 L 25 25 L 26 25 L 26 21 L 26 4 L 6 4 z M 9 7 L 9 13 L 15 13 L 15 7 L 9 7 z M 16 8 L 16 9 L 23 9 L 23 8 L 16 8 z M 16 11 L 16 12 L 23 12 L 23 11 L 16 11 z M 9 15 L 9 16 L 23 16 L 23 15 L 9 15 z M 9 19 L 9 20 L 23 20 L 23 19 L 9 19 z M 9 23 L 9 24 L 23 24 L 23 23 L 9 23 z "
     />
 <path 
     style="fill:#f47750" 
     d="M 17 26 A 1 1 0 0 0 16 27 A 1 1 0 0 0 17 28 A 1 1 0 0 0 18 27 A 1 1 0 0 0 17 26 z M 21 26 A 1 0.9999913 0 0 0 20 27 A 1 0.9999913 0 0 0 21 28 A 1 0.9999913 0 0 0 22 27 A 1 0.9999913 0 0 0 21 26 z M 25 26 A 1 0.9999913 0 0 0 24 27 A 1 0.9999913 0 0 0 25 28 A 1 0.9999913 0 0 0 26 27 A 1 0.9999913 0 0 0 25 26 z "
     />
</svg>
